report_00007_2020-12-11T15:55:29.892Z/network-rtt/comparison/line/6_vs_7.svg

<svg width="640" height="500" xmlns="http://www.w3.org/2000/svg" xmlns:xlink="http://www.w3.org/1999/xlink"><path fill="#fff" d="M0 0h640v500H0z"/><defs><path id="d" stroke-width=".222" stroke="currentColor" d="M-1-1h2v2h-2z"/><path id="b" stroke-width=".222" stroke="currentColor" d="M0-1.33l-1.33 2h2.66z"/><path id="f" stroke-width=".222" stroke="currentColor" d="M0 1.33L1.265.411.782-1.067l-1.564-.009-.483 1.487z"/><use xlink:href="#b" id="c" stroke="currentColor" transform="rotate(180)"/><use xlink:href="#d" id="e" stroke="currentColor" transform="rotate(45)"/><circle id="a" stroke-width=".222" stroke="currentColor" cx="0" cy="0" r="1"/></defs><g fill="none" color="#000" stroke="currentColor"><path stroke="#000" d="M62.2 399.9h9m543.8 0h-9"/><text transform="translate(53.9 403.8)" stroke="none" fill="#000" font-family="Arial" font-size="12" text-anchor="end"><tspan>0.05</tspan></text></g><g fill="none" color="#000" stroke="currentColor"><path stroke="#000" d="M62.2 317.2h9m543.8 0h-9"/><text transform="translate(53.9 321.1)" stroke="none" fill="#000" font-family="Arial" font-size="12" text-anchor="end"><tspan>0.1</tspan></text></g><g fill="none" color="#000" stroke="currentColor"><path stroke="#000" d="M62.2 234.4h9m543.8 0h-9"/><text transform="translate(53.9 238.3)" stroke="none" fill="#000" font-family="Arial" font-size="12" text-anchor="end"><tspan>0.15</tspan></text></g><g fill="none" color="#000" stroke="currentColor"><path stroke="#000" d="M62.2 151.6h9m543.8 0h-9"/><text transform="translate(53.9 155.5)" stroke="none" fill="#000" font-family="Arial" font-size="12" text-anchor="end"><tspan>0.2</tspan></text></g><g fill="none" color="#000" stroke="currentColor"><path stroke="#000" d="M62.2 68.9h9m543.8 0h-9"/><text transform="translate(53.9 72.8)" stroke="none" fill="#000" font-family="Arial" font-size="12" text-anchor="end"><tspan>0.25</tspan></text></g><g fill="none" color="#000" stroke="currentColor"><path stroke="#000" d="M62.2 428v-9m0-400.9v9"/><text transform="translate(62.2 449.9)" stroke="none" fill="#000" font-family="Arial" font-size="12" text-anchor="middle"><tspan>0</tspan></text></g><g fill="none" color="#000" stroke="currentColor"><path stroke="#000" d="M118 428v-9m0-400.9v9"/><text transform="translate(118 449.9)" stroke="none" fill="#000" font-family="Arial" font-size="12" text-anchor="middle"><tspan>10</tspan></text></g><g fill="none" color="#000" stroke="currentColor"><path stroke="#000" d="M173.9 428v-9m0-400.9v9"/><text transform="translate(173.9 449.9)" stroke="none" fill="#000" font-family="Arial" font-size="12" text-anchor="middle"><tspan>20</tspan></text></g><g fill="none" color="#000" stroke="currentColor"><path stroke="#000" d="M229.7 428v-9m0-400.9v9"/><text transform="translate(229.7 449.9)" stroke="none" fill="#000" font-family="Arial" font-size="12" text-anchor="middle"><tspan>30</tspan></text></g><g fill="none" color="#000" stroke="currentColor"><path stroke="#000" d="M285.6 428v-9m0-400.9v9"/><text transform="translate(285.6 449.9)" stroke="none" fill="#000" font-family="Arial" font-size="12" text-anchor="middle"><tspan>40</tspan></text></g><g fill="none" color="#000" stroke="currentColor"><path stroke="#000" d="M341.4 428v-9m0-400.9v9"/><text transform="translate(341.4 449.9)" stroke="none" fill="#000" font-family="Arial" font-size="12" text-anchor="middle"><tspan>50</tspan></text></g><g fill="none" color="#000" stroke="currentColor"><path stroke="#000" d="M397.2 428v-9m0-400.9v9"/><text transform="translate(397.2 449.9)" stroke="none" fill="#000" font-family="Arial" font-size="12" text-anchor="middle"><tspan>60</tspan></text></g><g fill="none" color="#000" stroke="currentColor"><path stroke="#000" d="M453.1 428v-9m0-400.9v9"/><text transform="translate(453.1 449.9)" stroke="none" fill="#000" font-family="Arial" font-size="12" text-anchor="middle"><tspan>70</tspan></text></g><g fill="none" color="#000" stroke="currentColor"><path stroke="#000" d="M508.9 428v-9m0-400.9v9"/><text transform="translate(508.9 449.9)" stroke="none" fill="#000" font-family="Arial" font-size="12" text-anchor="middle"><tspan>80</tspan></text></g><g fill="none" color="#000" stroke="currentColor"><path stroke="#000" d="M564.7 428v-9m0-400.9v9"/><text transform="translate(564.7 449.9)" stroke="none" fill="#000" font-family="Arial" font-size="12" text-anchor="middle"><tspan>90</tspan></text></g><path stroke="#000" d="M62.2 18.1V428H615V18.1H62.2z" fill="none" color="#000"/><text transform="translate(437.8 467.9)" stroke="none" fill="#000" font-family="Arial" font-size="12" text-anchor="end" color="#000"><tspan>pages+cached+noexternal+nofonts</tspan></text><path stroke="#9400D3" d="M446.1 464h42.2M62.2 316.7l5.6 89 5.6-54.9L79 371l5.5-3.4 5.6 27.9 5.6-14.8 5.6-7.6 5.6-7.1 5.6 6.6 5.5-.3 5.6-10.1 5.6 33.7 5.6-26.8 5.6 22.7 5.6-14.7 5.5 14.2 5.6-23.3 5.6 20.7 5.6-6.8 5.6 13.7 5.6-14.5 5.5 10.4 5.6-10.6 5.6 10.9 5.6-14.9 5.6 21.4 5.6-17.2 5.5 5.2 5.6-9.7 5.6-29.6 5.6 18.3 5.6 15.4 5.6-15.2 5.6-22.2 5.5 35.1 5.6-6.5 5.6 33 5.6-39.2 5.6-17.3 5.6 21.7 5.5 18.6 5.6 7.4 5.6-47.8 5.6 35.1 5.6-7.1 5.6-23.6 5.5-12.7 5.6 32.8 5.6-19.1 5.6 35.8 5.6-3.2 5.6-14.5 5.5 1.5 5.6.3 5.6-8.9 5.6-2.7 5.6 7.3 5.6 5.3 5.5 13.2 5.6-16.8 5.6 27.6 5.6-37.2 5.6-19.2 5.6 31.9 5.5-12.7 5.6-10 5.6 24.2 5.6-4 5.6 1.5 5.6 19.9 5.6-20.9 5.5-6.1 5.6 36.1 5.6-31.3 5.6-3.3 5.6 1.8 5.6 30.6 5.5-32.6 5.6 12.1 5.6-2.2 5.6-21.6 5.6 41.3 5.6 1.2 5.5 2.3 5.6-6.9 5.6-99.5 5.6 97.6 5.6-17 5.6 23.8 5.5-30.9 5.6 11.4 5.6-20 5.6-3.3 5.6 3.6 5.6 18.5 5.5 25.2 5.6-5.6 5.6-25.7L615 392" fill="none" color="#000"/><text transform="translate(437.8 485.9)" stroke="none" fill="#000" font-family="Arial" font-size="12" text-anchor="end" color="#000"><tspan>pages+cached+noexternal+nosvg</tspan></text><path stroke="#009E73" d="M446.1 482h42.2M62.2 370.1l5.6.2 5.6 7.1 5.6-26.5 5.5 13.1 5.6-22 5.6 20.8 5.6 13.1 5.6-33.7 5.6 24.8 5.5 14.7 5.6-310.2 5.6 291.8 5.6-63.5 5.6-58 5.6 90.6 5.5 41.5 5.6-38.2 5.6 35.4 5.6 44.7 5.6-52.8 5.6 20.5 5.5 3.2 5.6-26.7 5.6 18.4 5.6-10.3 5.6-4.6 5.6-255.2 5.5 287.6 5.6 4.2 5.6 1.8 5.6-59.1 5.6 36.8 5.6-173 5.6 173.8 5.5 17.7 5.6-335.5 5.6 263.8 5.6 49.2L280 392l5.6-39.3 5.5 14 5.6 10.9 5.6 4.6 5.6-28.3 5.6 33.1 5.6-1.6 5.5-9.1 5.6-7.8 5.6-31.1 5.6 30.7 5.6 10 5.6-14.1 5.5 17.1 5.6-.5 5.6-17.8 5.6 15.4 5.6-22.1 5.6 32.6 5.5 6.6 5.6-19.4 5.6 17.6 5.6-24.5 5.6 9.7 5.6-3.9 5.5-9.1 5.6 13.5 5.6-10.2 5.6-14.3 5.6 4.3 5.6 61.1 5.6-39.9 5.5-12.2 5.6-7.1L475.4 26l5.6 360.5 5.6-45.5 5.6 30.5 5.5-50.4 5.6 26.3 5.6-46.8 5.6 70.4 5.6.5 5.6 4.8 5.5-11.5 5.6-16.9 5.6 25.5 5.6-6.7 5.6 11.2 5.6-46 5.5 20.3 5.6 37.6 5.6-327.2 5.6 307.7 5.6 7.6 5.6-33.3 5.5-49.5 5.6 97.4 5.6-52.7 5.6 23" fill="none" color="#000"/><g fill="none" color="#000" stroke="currentColor"><path stroke="#000" d="M62.2 18.1V428H615V18.1H62.2z"/></g></svg>

<?xml version="1.0" encoding="utf-8"  standalone="no"?>
<svg 
 width="640" height="500"
 viewBox="0 0 640 500"
 xmlns="http://www.w3.org/2000/svg"
 xmlns:xlink="http://www.w3.org/1999/xlink"
>

<title>Gnuplot</title>
<desc>Produced by GNUPLOT 5.4 patchlevel 0 </desc>

<g id="gnuplot_canvas">

<rect x="0" y="0" width="640" height="500" fill="#ffffff"/>
<defs>

	<circle id='gpDot' r='0.5' stroke-width='0.5' stroke='currentColor'/>
	<path id='gpPt0' stroke-width='0.222' stroke='currentColor' d='M-1,0 h2 M0,-1 v2'/>
	<path id='gpPt1' stroke-width='0.222' stroke='currentColor' d='M-1,-1 L1,1 M1,-1 L-1,1'/>
	<path id='gpPt2' stroke-width='0.222' stroke='currentColor' d='M-1,0 L1,0 M0,-1 L0,1 M-1,-1 L1,1 M-1,1 L1,-1'/>
	<rect id='gpPt3' stroke-width='0.222' stroke='currentColor' x='-1' y='-1' width='2' height='2'/>
	<rect id='gpPt4' stroke-width='0.222' stroke='currentColor' fill='currentColor' x='-1' y='-1' width='2' height='2'/>
	<circle id='gpPt5' stroke-width='0.222' stroke='currentColor' cx='0' cy='0' r='1'/>
	<use xlink:href='#gpPt5' id='gpPt6' fill='currentColor' stroke='none'/>
	<path id='gpPt7' stroke-width='0.222' stroke='currentColor' d='M0,-1.33 L-1.33,0.67 L1.33,0.67 z'/>
	<use xlink:href='#gpPt7' id='gpPt8' fill='currentColor' stroke='none'/>
	<use xlink:href='#gpPt7' id='gpPt9' stroke='currentColor' transform='rotate(180)'/>
	<use xlink:href='#gpPt9' id='gpPt10' fill='currentColor' stroke='none'/>
	<use xlink:href='#gpPt3' id='gpPt11' stroke='currentColor' transform='rotate(45)'/>
	<use xlink:href='#gpPt11' id='gpPt12' fill='currentColor' stroke='none'/>
	<path id='gpPt13' stroke-width='0.222' stroke='currentColor' d='M0,1.330 L1.265,0.411 L0.782,-1.067 L-0.782,-1.076 L-1.265,0.411 z'/>
	<use xlink:href='#gpPt13' id='gpPt14' fill='currentColor' stroke='none'/>
	<filter id='textbox' filterUnits='objectBoundingBox' x='0' y='0' height='1' width='1'>
	  <feFlood flood-color='#FFFFFF' flood-opacity='1' result='bgnd'/>
	  <feComposite in='SourceGraphic' in2='bgnd' operator='atop'/>
	</filter>
	<filter id='greybox' filterUnits='objectBoundingBox' x='0' y='0' height='1' width='1'>
	  <feFlood flood-color='lightgrey' flood-opacity='1' result='grey'/>
	  <feComposite in='SourceGraphic' in2='grey' operator='atop'/>
	</filter>
</defs>
<g fill="none" color="#FFFFFF" stroke="black" stroke-width="1.00" stroke-linecap="butt" stroke-linejoin="miter">
</g>
<g fill="none" color="black" stroke="currentColor" stroke-width="1.00" stroke-linecap="butt" stroke-linejoin="miter">
	<path stroke='black'  d='M62.2,399.9 L71.2,399.9 M615.0,399.9 L606.0,399.9  '/>	<g transform="translate(53.9,403.8)" stroke="none" fill="black" font-family="Arial" font-size="12.00"  text-anchor="end">
		<text><tspan font-family="Arial" > 0.05</tspan></text>
	</g>
</g>
<g fill="none" color="black" stroke="currentColor" stroke-width="1.00" stroke-linecap="butt" stroke-linejoin="miter">
	<path stroke='black'  d='M62.2,317.2 L71.2,317.2 M615.0,317.2 L606.0,317.2  '/>	<g transform="translate(53.9,321.1)" stroke="none" fill="black" font-family="Arial" font-size="12.00"  text-anchor="end">
		<text><tspan font-family="Arial" > 0.1</tspan></text>
	</g>
</g>
<g fill="none" color="black" stroke="currentColor" stroke-width="1.00" stroke-linecap="butt" stroke-linejoin="miter">
	<path stroke='black'  d='M62.2,234.4 L71.2,234.4 M615.0,234.4 L606.0,234.4  '/>	<g transform="translate(53.9,238.3)" stroke="none" fill="black" font-family="Arial" font-size="12.00"  text-anchor="end">
		<text><tspan font-family="Arial" > 0.15</tspan></text>
	</g>
</g>
<g fill="none" color="black" stroke="currentColor" stroke-width="1.00" stroke-linecap="butt" stroke-linejoin="miter">
	<path stroke='black'  d='M62.2,151.6 L71.2,151.6 M615.0,151.6 L606.0,151.6  '/>	<g transform="translate(53.9,155.5)" stroke="none" fill="black" font-family="Arial" font-size="12.00"  text-anchor="end">
		<text><tspan font-family="Arial" > 0.2</tspan></text>
	</g>
</g>
<g fill="none" color="black" stroke="currentColor" stroke-width="1.00" stroke-linecap="butt" stroke-linejoin="miter">
	<path stroke='black'  d='M62.2,68.9 L71.2,68.9 M615.0,68.9 L606.0,68.9  '/>	<g transform="translate(53.9,72.8)" stroke="none" fill="black" font-family="Arial" font-size="12.00"  text-anchor="end">
		<text><tspan font-family="Arial" > 0.25</tspan></text>
	</g>
</g>
<g fill="none" color="black" stroke="currentColor" stroke-width="1.00" stroke-linecap="butt" stroke-linejoin="miter">
	<path stroke='black'  d='M62.2,428.0 L62.2,419.0 M62.2,18.1 L62.2,27.1  '/>	<g transform="translate(62.2,449.9)" stroke="none" fill="black" font-family="Arial" font-size="12.00"  text-anchor="middle">
		<text><tspan font-family="Arial" > 0</tspan></text>
	</g>
</g>
<g fill="none" color="black" stroke="currentColor" stroke-width="1.00" stroke-linecap="butt" stroke-linejoin="miter">
	<path stroke='black'  d='M118.0,428.0 L118.0,419.0 M118.0,18.1 L118.0,27.1  '/>	<g transform="translate(118.0,449.9)" stroke="none" fill="black" font-family="Arial" font-size="12.00"  text-anchor="middle">
		<text><tspan font-family="Arial" > 10</tspan></text>
	</g>
</g>
<g fill="none" color="black" stroke="currentColor" stroke-width="1.00" stroke-linecap="butt" stroke-linejoin="miter">
	<path stroke='black'  d='M173.9,428.0 L173.9,419.0 M173.9,18.1 L173.9,27.1  '/>	<g transform="translate(173.9,449.9)" stroke="none" fill="black" font-family="Arial" font-size="12.00"  text-anchor="middle">
		<text><tspan font-family="Arial" > 20</tspan></text>
	</g>
</g>
<g fill="none" color="black" stroke="currentColor" stroke-width="1.00" stroke-linecap="butt" stroke-linejoin="miter">
	<path stroke='black'  d='M229.7,428.0 L229.7,419.0 M229.7,18.1 L229.7,27.1  '/>	<g transform="translate(229.7,449.9)" stroke="none" fill="black" font-family="Arial" font-size="12.00"  text-anchor="middle">
		<text><tspan font-family="Arial" > 30</tspan></text>
	</g>
</g>
<g fill="none" color="black" stroke="currentColor" stroke-width="1.00" stroke-linecap="butt" stroke-linejoin="miter">
	<path stroke='black'  d='M285.6,428.0 L285.6,419.0 M285.6,18.1 L285.6,27.1  '/>	<g transform="translate(285.6,449.9)" stroke="none" fill="black" font-family="Arial" font-size="12.00"  text-anchor="middle">
		<text><tspan font-family="Arial" > 40</tspan></text>
	</g>
</g>
<g fill="none" color="black" stroke="currentColor" stroke-width="1.00" stroke-linecap="butt" stroke-linejoin="miter">
	<path stroke='black'  d='M341.4,428.0 L341.4,419.0 M341.4,18.1 L341.4,27.1  '/>	<g transform="translate(341.4,449.9)" stroke="none" fill="black" font-family="Arial" font-size="12.00"  text-anchor="middle">
		<text><tspan font-family="Arial" > 50</tspan></text>
	</g>
</g>
<g fill="none" color="black" stroke="currentColor" stroke-width="1.00" stroke-linecap="butt" stroke-linejoin="miter">
	<path stroke='black'  d='M397.2,428.0 L397.2,419.0 M397.2,18.1 L397.2,27.1  '/>	<g transform="translate(397.2,449.9)" stroke="none" fill="black" font-family="Arial" font-size="12.00"  text-anchor="middle">
		<text><tspan font-family="Arial" > 60</tspan></text>
	</g>
</g>
<g fill="none" color="black" stroke="currentColor" stroke-width="1.00" stroke-linecap="butt" stroke-linejoin="miter">
	<path stroke='black'  d='M453.1,428.0 L453.1,419.0 M453.1,18.1 L453.1,27.1  '/>	<g transform="translate(453.1,449.9)" stroke="none" fill="black" font-family="Arial" font-size="12.00"  text-anchor="middle">
		<text><tspan font-family="Arial" > 70</tspan></text>
	</g>
</g>
<g fill="none" color="black" stroke="currentColor" stroke-width="1.00" stroke-linecap="butt" stroke-linejoin="miter">
	<path stroke='black'  d='M508.9,428.0 L508.9,419.0 M508.9,18.1 L508.9,27.1  '/>	<g transform="translate(508.9,449.9)" stroke="none" fill="black" font-family="Arial" font-size="12.00"  text-anchor="middle">
		<text><tspan font-family="Arial" > 80</tspan></text>
	</g>
</g>
<g fill="none" color="black" stroke="currentColor" stroke-width="1.00" stroke-linecap="butt" stroke-linejoin="miter">
	<path stroke='black'  d='M564.7,428.0 L564.7,419.0 M564.7,18.1 L564.7,27.1  '/>	<g transform="translate(564.7,449.9)" stroke="none" fill="black" font-family="Arial" font-size="12.00"  text-anchor="middle">
		<text><tspan font-family="Arial" > 90</tspan></text>
	</g>
</g>
<g fill="none" color="black" stroke="currentColor" stroke-width="1.00" stroke-linecap="butt" stroke-linejoin="miter">
</g>
<g fill="none" color="black" stroke="currentColor" stroke-width="1.00" stroke-linecap="butt" stroke-linejoin="miter">
	<path stroke='black'  d='M62.2,18.1 L62.2,428.0 L615.0,428.0 L615.0,18.1 L62.2,18.1 Z  '/></g>
<g fill="none" color="black" stroke="currentColor" stroke-width="1.00" stroke-linecap="butt" stroke-linejoin="miter">
</g>
	<g id="gnuplot_plot_1" ><title>pages+cached+noexternal+nofonts</title>
<g fill="none" color="black" stroke="currentColor" stroke-width="1.00" stroke-linecap="butt" stroke-linejoin="miter">
	<g transform="translate(437.8,467.9)" stroke="none" fill="black" font-family="Arial" font-size="12.00"  text-anchor="end">
		<text><tspan font-family="Arial" >pages+cached+noexternal+nofonts</tspan></text>
	</g>
</g>
<g fill="none" color="black" stroke="currentColor" stroke-width="1.00" stroke-linecap="butt" stroke-linejoin="miter">
	<path stroke='rgb(148,   0, 211)'  d='M446.1,464.0 L488.3,464.0 M62.2,316.7 L67.8,405.7 L73.4,350.8 L79.0,371.0 L84.5,367.6 L90.1,395.5
		L95.7,380.7 L101.3,373.1 L106.9,366.0 L112.5,372.6 L118.0,372.3 L123.6,362.2 L129.2,395.9 L134.8,369.1
		L140.4,391.8 L146.0,377.1 L151.5,391.3 L157.1,368.0 L162.7,388.7 L168.3,381.9 L173.9,395.6 L179.5,381.1
		L185.0,391.5 L190.6,380.9 L196.2,391.8 L201.8,376.9 L207.4,398.3 L213.0,381.1 L218.5,386.3 L224.1,376.6
		L229.7,347.0 L235.3,365.3 L240.9,380.7 L246.5,365.5 L252.1,343.3 L257.6,378.4 L263.2,371.9 L268.8,404.9
		L274.4,365.7 L280.0,348.4 L285.6,370.1 L291.1,388.7 L296.7,396.1 L302.3,348.3 L307.9,383.4 L313.5,376.3
		L319.1,352.7 L324.6,340.0 L330.2,372.8 L335.8,353.7 L341.4,389.5 L347.0,386.3 L352.6,371.8 L358.1,373.3
		L363.7,373.6 L369.3,364.7 L374.9,362.0 L380.5,369.3 L386.1,374.6 L391.6,387.8 L397.2,371.0 L402.8,398.6
		L408.4,361.4 L414.0,342.2 L419.6,374.1 L425.1,361.4 L430.7,351.4 L436.3,375.6 L441.9,371.6 L447.5,373.1
		L453.1,393.0 L458.7,372.1 L464.2,366.0 L469.8,402.1 L475.4,370.8 L481.0,367.5 L486.6,369.3 L492.2,399.9
		L497.7,367.3 L503.3,379.4 L508.9,377.2 L514.5,355.6 L520.1,396.9 L525.7,398.1 L531.2,400.4 L536.8,393.5
		L542.4,294.0 L548.0,391.6 L553.6,374.6 L559.2,398.4 L564.7,367.5 L570.3,378.9 L575.9,358.9 L581.5,355.6
		L587.1,359.2 L592.7,377.7 L598.2,402.9 L603.8,397.3 L609.4,371.6 L615.0,392.0  '/></g>
	</g>
	<g id="gnuplot_plot_2" ><title>pages+cached+noexternal+nosvg</title>
<g fill="none" color="black" stroke="currentColor" stroke-width="1.00" stroke-linecap="butt" stroke-linejoin="miter">
	<g transform="translate(437.8,485.9)" stroke="none" fill="black" font-family="Arial" font-size="12.00"  text-anchor="end">
		<text><tspan font-family="Arial" >pages+cached+noexternal+nosvg</tspan></text>
	</g>
</g>
<g fill="none" color="black" stroke="currentColor" stroke-width="1.00" stroke-linecap="butt" stroke-linejoin="miter">
	<path stroke='rgb(  0, 158, 115)'  d='M446.1,482.0 L488.3,482.0 M62.2,370.1 L67.8,370.3 L73.4,377.4 L79.0,350.9 L84.5,364.0 L90.1,342.0
		L95.7,362.8 L101.3,375.9 L106.9,342.2 L112.5,367.0 L118.0,381.7 L123.6,71.5 L129.2,363.3 L134.8,299.8
		L140.4,241.8 L146.0,332.4 L151.5,373.9 L157.1,335.7 L162.7,371.1 L168.3,415.8 L173.9,363.0 L179.5,383.5
		L185.0,386.7 L190.6,360.0 L196.2,378.4 L201.8,368.1 L207.4,363.5 L213.0,108.3 L218.5,395.9 L224.1,400.1
		L229.7,401.9 L235.3,342.8 L240.9,379.6 L246.5,206.6 L252.1,380.4 L257.6,398.1 L263.2,62.6 L268.8,326.4
		L274.4,375.6 L280.0,392.0 L285.6,352.7 L291.1,366.7 L296.7,377.6 L302.3,382.2 L307.9,353.9 L313.5,387.0
		L319.1,385.4 L324.6,376.3 L330.2,368.5 L335.8,337.4 L341.4,368.1 L347.0,378.1 L352.6,364.0 L358.1,381.1
		L363.7,380.6 L369.3,362.8 L374.9,378.2 L380.5,356.1 L386.1,388.7 L391.6,395.3 L397.2,375.9 L402.8,393.5
		L408.4,369.0 L414.0,378.7 L419.6,374.8 L425.1,365.7 L430.7,379.2 L436.3,369.0 L441.9,354.7 L447.5,359.0
		L453.1,420.1 L458.7,380.2 L464.2,368.0 L469.8,360.9 L475.4,26.0 L481.0,386.5 L486.6,341.0 L492.2,371.5
		L497.7,321.1 L503.3,347.4 L508.9,300.6 L514.5,371.0 L520.1,371.5 L525.7,376.3 L531.2,364.8 L536.8,347.9
		L542.4,373.4 L548.0,366.7 L553.6,377.9 L559.2,331.9 L564.7,352.2 L570.3,389.8 L575.9,62.6 L581.5,370.3
		L587.1,377.9 L592.7,344.6 L598.2,295.1 L603.8,392.5 L609.4,339.8 L615.0,362.8  '/></g>
	</g>
<g fill="none" color="#FFFFFF" stroke="rgb(  0, 158, 115)" stroke-width="2.00" stroke-linecap="butt" stroke-linejoin="miter">
</g>
<g fill="none" color="black" stroke="currentColor" stroke-width="2.00" stroke-linecap="butt" stroke-linejoin="miter">
</g>
<g fill="none" color="black" stroke="black" stroke-width="1.00" stroke-linecap="butt" stroke-linejoin="miter">
</g>
<g fill="none" color="black" stroke="currentColor" stroke-width="1.00" stroke-linecap="butt" stroke-linejoin="miter">
	<path stroke='black'  d='M62.2,18.1 L62.2,428.0 L615.0,428.0 L615.0,18.1 L62.2,18.1 Z  '/></g>
<g fill="none" color="black" stroke="currentColor" stroke-width="1.00" stroke-linecap="butt" stroke-linejoin="miter">
</g>
</g>
</svg>
